src/plonetheme/tokyo/theme/images/fingerprint.svg

<svg xmlns="http://www.w3.org/2000/svg" style="isolation:isolate" width="910.225" height="801.723"><defs><clipPath id="a"><path d="M0 0h910.225v801.723H0z"/></clipPath></defs><g fill="#FFF" clip-path="url(#a)"><path d="M121.599 257.152a26.27 26.27 0 1 1-22.874-39.372c33.373-56.245 134.803-187.673 356.411-187.673 95.993 0 180.174 25.498 250.106 75.744 57.558 41.247 89.806 87.931 105.18 110.429a26.055 26.055 0 0 1-6.937 36.373c-12.09 8.102-28.443 5.015-36.748-6.937-27.935-40.497-112.679-163.488-311.601-163.488-194.235 0-281.979 113.242-310.664 161.8a25.878 25.878 0 0 1-22.873 13.124z"/><path d="M566.69 771.614a26.183 26.183 0 0 1-6.562-.75c-160.675-40.31-220.671-202.673-223.108-209.422l-.375-1.5c-1.313-4.687-33.56-116.054 15.936-181.299 22.686-29.81 57.183-44.996 102.742-44.996 42.372 0 72.932 13.311 93.931 40.872 17.248 22.498 24.185 50.246 30.935 77.056 14.061 55.684 24.186 84.931 82.681 87.931 25.686 1.312 42.56-13.874 52.121-26.81 25.873-35.248 30.373-92.806 10.874-143.427-25.123-65.62-113.991-189.173-270.729-189.173-66.933 0-128.428 21.748-177.737 62.62-40.872 33.935-73.307 81.744-88.868 130.865-28.873 91.493 8.999 235.295 9.374 236.607a26.007 26.007 0 0 1-18.748 31.873c-14.067 3.712-28.51-4.552-32.435-18.561-1.688-6.562-42.185-159.926-8.812-265.668 36.372-114.554 148.489-230.045 317.226-230.045 77.994 0 151.676 26.811 213.171 77.432 47.622 39.372 86.619 92.243 106.867 145.114 25.873 67.495 18.936 143.239-17.623 192.735-24.374 32.998-59.058 50.247-97.493 48.372-100.118-5.062-118.116-75.745-131.24-127.303-13.499-52.871-22.123-78.369-73.682-78.369-28.31 0-48.184 7.874-60.558 24.185-16.874 22.311-18.186 57.184-16.311 82.494l.057.792a213.611 213.611 0 0 0 28.517 91.309c26.027 44.877 78.821 113.701 166.411 135.694a26.049 26.049 0 0 1 19.124 31.686 26.618 26.618 0 0 1-25.686 19.686z"/><path d="M360.456 759.614a26.69 26.69 0 0 1-19.311-8.249c-64.308-68.245-100.68-144.552-114.367-239.982v-.562c-7.687-63.183 3.562-152.614 58.683-214.109 40.685-45.372 97.868-68.432 169.675-68.432 84.931 0 151.676 39.934 193.298 115.303a324.107 324.107 0 0 1 36.372 111.554c1.286 14.426-9.255 27.209-23.661 28.696-14.406 1.486-27.335-8.874-29.022-23.258a271.394 271.394 0 0 0-30.936-93.181c-32.247-57.558-81.368-86.806-146.239-86.806-56.058 0-99.93 17.061-130.115 50.809-43.496 48.559-51.933 123.365-45.934 172.862 11.999 84.368 44.059 151.488 100.68 211.484a25.93 25.93 0 0 1-1.312 36.934 26.593 26.593 0 0 1-17.811 6.937z"/><circle vector-effect="non-scaling-stroke" cx="455.511" cy="481.011" r="33.747"/></g></svg>

<?xml version="1.0" standalone="no"?><!-- Generator: Gravit.io --><svg xmlns="http://www.w3.org/2000/svg" xmlns:xlink="http://www.w3.org/1999/xlink" style="isolation:isolate" viewBox="0 0 910.225 801.723" width="910.225" height="801.723"><defs><clipPath id="_clipPath_T8iWymBQpF7l16cKAKPEVM1RaJCNRBtC"><rect width="910.225" height="801.723"/></clipPath></defs><g clip-path="url(#_clipPath_T8iWymBQpF7l16cKAKPEVM1RaJCNRBtC)"><g><path d=" M 121.599 257.152 C 112.202 257.189 103.501 252.204 98.781 244.078 C 94.06 235.953 94.039 225.925 98.725 217.78 C 132.098 161.535 233.528 30.107 455.136 30.107 C 551.129 30.107 635.31 55.605 705.242 105.851 C 762.8 147.098 795.048 193.782 810.422 216.28 C 814.359 222.013 815.841 229.082 814.539 235.913 C 813.236 242.745 809.256 248.772 803.485 252.653 C 791.395 260.755 775.042 257.668 766.737 245.716 C 738.802 205.219 654.058 82.228 455.136 82.228 C 260.901 82.228 173.157 195.47 144.472 244.028 C 139.815 252.251 131.047 257.282 121.599 257.152 L 121.599 257.152 Z " fill="rgb(255,255,255)"/><path d=" M 566.69 771.614 C 564.48 771.642 562.275 771.39 560.128 770.864 C 399.453 730.554 339.457 568.191 337.02 561.442 L 336.645 559.942 C 335.332 555.255 303.085 443.888 352.581 378.643 C 375.267 348.833 409.764 333.647 455.323 333.647 C 497.695 333.647 528.255 346.958 549.254 374.519 C 566.502 397.017 573.439 424.765 580.189 451.575 C 594.25 507.259 604.375 536.506 662.87 539.506 C 688.556 540.818 705.43 525.632 714.991 512.696 C 740.864 477.448 745.364 419.89 725.865 369.269 C 700.742 303.649 611.874 180.096 455.136 180.096 C 388.203 180.096 326.708 201.844 277.399 242.716 C 236.527 276.651 204.092 324.46 188.531 373.581 C 159.658 465.074 197.53 608.876 197.905 610.188 C 199.685 616.903 198.705 624.05 195.183 630.038 C 191.661 636.025 185.89 640.354 179.157 642.061 C 165.09 645.773 150.647 637.509 146.722 623.5 C 145.034 616.938 104.537 463.574 137.91 357.832 C 174.282 243.278 286.399 127.787 455.136 127.787 C 533.13 127.787 606.812 154.598 668.307 205.219 C 715.929 244.591 754.926 297.462 775.174 350.333 C 801.047 417.828 794.11 493.572 757.551 543.068 C 733.177 576.066 698.493 593.315 660.058 591.44 C 559.94 586.378 541.942 515.695 528.818 464.137 C 515.319 411.266 506.695 385.768 455.136 385.768 C 426.826 385.768 406.952 393.642 394.578 409.953 C 377.704 432.264 376.392 467.137 378.267 492.447 Q 378.295 492.844 378.324 493.239 C 380.805 525.44 390.555 556.659 406.841 584.548 C 432.868 629.425 485.662 698.249 573.252 720.242 C 580.008 721.878 585.829 726.147 589.421 732.097 C 593.012 738.048 594.076 745.188 592.376 751.928 C 589.244 763.539 578.716 771.608 566.69 771.614 L 566.69 771.614 Z " fill="rgb(255,255,255)"/><path d=" M 360.456 759.614 C 353.162 759.618 346.184 756.638 341.145 751.365 C 276.837 683.12 240.465 606.813 226.778 511.383 L 226.778 510.821 C 219.091 447.638 230.34 358.207 285.461 296.712 C 326.146 251.34 383.329 228.28 455.136 228.28 C 540.067 228.28 606.812 268.214 648.434 343.583 C 667.244 378.245 679.57 416.05 684.806 455.137 C 686.092 469.563 675.551 482.346 661.145 483.833 C 646.739 485.319 633.81 474.959 632.123 460.575 C 627.562 427.892 617.078 396.315 601.187 367.394 C 568.94 309.836 519.819 280.588 454.948 280.588 C 398.89 280.588 355.018 297.649 324.833 331.397 C 281.337 379.956 272.9 454.762 278.899 504.259 C 290.898 588.627 322.958 655.747 379.579 715.743 C 384.354 720.79 386.904 727.542 386.657 734.485 C 386.41 741.428 383.388 747.982 378.267 752.677 C 373.395 757.117 367.047 759.589 360.456 759.614 L 360.456 759.614 Z " fill="rgb(255,255,255)"/><circle vector-effect="non-scaling-stroke" cx="455.5108796477207" cy="481.0105002942516" r="33.7474510762525" fill="rgb(255,255,255)"/></g></g></svg>
